X:1
T:Master Reginald MacDonald
N:Suggested tune for The Deacon of the Weavers
C:R. MacDonald (Skye)
R:Strathspey (8x32)
B:RSCDS 25-4
Z:Anselm Lingnau <anselm@strathspey.org>
M:C
L:1/8
K:A
e |\
"A"A<A e<A "D"af "E"e<e | "D"fe "A/c#"ae "Bm"f<B "E7"B2 |\
"A"A<A e<A "D"af "A/c#"e<e | "Bm"fe "A"a<c "E7"B2 "A"A :|
e |\
"A"A<A cA eAcA | "E"E<E GE [BE]E G[BE] |\
"A"A<A cA eAcA | "E7"E<E GB "A"A2 A2 |
"A"A<A cA aecA | "E"E<E GE [BE]E G[BE] |\
"A"(3ABc "E7"(3Bcd "A"(3cde "Bm"(3def | "E7"(3agf (3efg "A"a2 a |]
